X:1
T: Clune
C:Bruce Shawyer
R:Jig
Q:180
K:G
M:6/8
L:1/16
|:d2|d2c2B2 B2c2d2|e2d2c2 e2f2g2|d2c2B2 B2c2d2|c2A2F2 D4d2|
d2c2B2 B2c2d2|e2d2c2 e2f2g2|d2B2G2 c2A2F2|G2A2G2 G4:|
|:B2|g2f2e2 e2f2g2|f2e2d2 d4d2|e2d2c2 c2d2e2|d2c2B2 B6|
e2d2c2 c2d2e2|d2c2B2 B4B2|d2B2G2 c2A2F2|G2A2G2 G4:|
